X:1
T:Bold Robin Hood and the Threee Squires
M:6/4
L:1/4
K:F
 C| F G A A- G A| F E D C2 C| F E F F2 G| A3- A2 B| c- d c A G A| F- G F D- E F|\
 G A B c B G| F3- F2||
